X: 1
T: Evelyn's Favourite - Strathspey
R: strathspey
S: printed MS with handwritten chords
Z: 2006 John Chambers <jc:trillian.mit.edu>
M: C
L: 1/16
K: Gm
GF \
| "Gm"DG3 G3A B4 G3B | "F"AF3 c3F ABcA F3A \
| "Gm"DG3 G3A "(Bb)"B4 G3B | "F"AF3 {e}c3A "Gm"GGG2 G2 :|
a2 \
| "Gm"g3d bagf G4 "(C)"d3e | "F"f3c f3g agfd c3d \
| "Gm"g3d bagf g4 d3g | "F"f3d {e}c3A "Gm"GGG2 G2 |
a2 \
| "Gm"g3d bagf G4 "(C)"d3e | "F"f3c f3g agfd c3d \
| "Gm"(3b2a2g2 "F"(3a2g2f2 "Gm"(3g2f2e2 (3d2c2B2 | "F"AF3 {e}c3A "Gm"GGG2 G2 |]
